X:80
T:Off She Goes
R:jig
Z:1997 by John Chambers <jc:trillian.mit.edu>
M:6/8
L:1/8
K:D
A | F2A G2B | ABc d2A | F2A G2B | AFD E2D |
F2A G2B | ABc d2e | f2d g2f | edc d2 ::
e | faf def | gbg efg | faf def | ecA A2e |
faf def | gbg efg | f2f g2f | edc d2 :|
